X:4059
T:Mason's Apron, The
O:england
R:reel
H:More often played in A, see #643
M:C|
K:G
df|:gG~G2 BAGE|DEGA BGAB|cA~A2 ABAG|ABcd edef|
gG~G2 BAGE|DEGA BGAB|cBcd efge|1 dBAB G2df:|2 dBAB G2GA||
|:B2dB eBdB|B2dB eBdB|c2ec fcec|c2ec fedc|
B2dB eBdB|B2dB edcB|cBcd efge|1 dBAB G2GA:|2 dBAB G2||


